app/assets/images/payment_icons/google_pay.svg

<svg xmlns="http://www.w3.org/2000/svg" width="38" height="24" viewBox="0 0 38 24" fill="none" aria-labelledby="pi-google_pay" role="img"><title id="pi-google_pay">Google Pay</title><rect width="38" height="24" fill="white"/><path d="M18.093 11.976V15.176H17.075V7.276H19.766C20.0884 7.27054 20.4088 7.32887 20.7086 7.44763C21.0084 7.56638 21.2818 7.74323 21.513 7.968C21.732 8.1724 21.9087 8.41795 22.0327 8.69064C22.1568 8.96332 22.2259 9.25779 22.2362 9.5572C22.2464 9.85662 22.1975 10.1551 22.0923 10.4356C21.9871 10.7161 21.8276 10.9732 21.623 11.192L21.513 11.308C21.043 11.755 20.415 11.998 19.766 11.982L18.093 11.976V11.976ZM18.093 8.244V11.032H19.791C20.168 11.044 20.532 10.897 20.796 10.628C20.9848 10.4312 21.1117 10.1832 21.1606 9.91483C21.2096 9.6465 21.1787 9.36969 21.0716 9.11883C20.9645 8.86797 20.786 8.65413 20.5583 8.50392C20.3306 8.35371 20.0638 8.27376 19.791 8.274L18.093 8.244V8.244ZM24.577 9.592C25.227 9.562 25.863 9.78 26.355 10.205C26.8 10.635 27.037 11.235 27.005 11.854V15.188H26.036V14.422H25.987C25.8132 14.7093 25.5675 14.9463 25.2741 15.1096C24.9807 15.2729 24.6498 15.3568 24.314 15.353C23.7659 15.3707 23.2314 15.1803 22.818 14.82C22.6221 14.6602 22.4652 14.458 22.359 14.2286C22.2528 13.9992 22.2001 13.7487 22.205 13.496C22.1935 13.2406 22.2431 12.9861 22.3497 12.7538C22.4563 12.5214 22.6169 12.3178 22.818 12.16C23.3114 11.8052 23.9086 11.624 24.516 11.645C25.033 11.625 25.546 11.738 26.006 11.976V11.768C26.0094 11.596 25.9736 11.4255 25.9014 11.2694C25.8291 11.1133 25.7223 10.9757 25.589 10.867C25.3213 10.6237 24.9707 10.492 24.609 10.499C24.3463 10.4965 24.0874 10.5611 23.8566 10.6865C23.6258 10.812 23.4308 10.9942 23.29 11.216L22.395 10.652C22.638 10.3038 22.9661 10.0236 23.3481 9.83805C23.73 9.65251 24.1531 9.5678 24.577 9.592V9.592ZM23.29 13.52C23.2876 13.6495 23.3171 13.7776 23.3758 13.8931C23.4346 14.0085 23.5209 14.1077 23.627 14.182C23.85 14.358 24.127 14.451 24.412 14.445C24.841 14.444 25.252 14.275 25.558 13.973C25.863 13.687 26.036 13.288 26.036 12.87C25.651 12.5963 25.1833 12.4642 24.712 12.496C24.3461 12.4816 23.9852 12.5846 23.682 12.79C23.5619 12.8703 23.4634 12.9789 23.3951 13.1062C23.3267 13.2334 23.2907 13.3755 23.29 13.52V13.52ZM32.576 9.77L29.186 17.56H28.138L29.419 14.832L27.195 9.77H28.298L29.91 13.655L31.479 9.77H32.576V9.77Z" fill="#5F6368"/><path d="M13.986 11.284C13.986 10.976 13.962 10.668 13.913 10.364H9.62299V12.111H12.074C12.0241 12.3886 11.9186 12.6534 11.764 12.8893C11.6094 13.1252 11.4087 13.3275 11.174 13.484V14.618H12.638C13.0831 14.1873 13.4331 13.6681 13.6652 13.0938C13.8974 12.5196 14.0067 11.9031 13.986 11.284Z" fill="#4285F4"/><path d="M9.629 15.721C10.7353 15.7514 11.8116 15.3591 12.639 14.624L11.173 13.484C10.8207 13.7098 10.4216 13.8524 10.006 13.9008C9.59039 13.9492 9.1692 13.9022 8.77448 13.7634C8.37975 13.6245 8.02188 13.3975 7.72808 13.0996C7.43429 12.8016 7.2123 12.4406 7.079 12.044H5.577V13.214C5.95284 13.967 6.53104 14.6005 7.24675 15.0433C7.96246 15.4861 8.78738 15.7208 9.629 15.721V15.721Z" fill="#34A853"/><path d="M7.07899 12.05C6.88879 11.4873 6.88879 10.8777 7.07899 10.315V9.145H5.57699C5.25678 9.77646 5.0899 10.4745 5.0899 11.1825C5.0899 11.8905 5.25678 12.5885 5.57699 13.22L7.07899 12.05V12.05Z" fill="#FBBC04"/><path d="M9.629 8.44C10.276 8.42818 10.9014 8.67261 11.369 9.12L12.669 7.827C11.8401 7.04901 10.7406 6.62466 9.604 6.644C8.76736 6.6482 7.94824 6.884 7.23743 7.32528C6.52662 7.76656 5.9519 8.39606 5.577 9.144L7.079 10.315C7.25462 9.77508 7.59508 9.30381 8.0525 8.96747C8.50992 8.63114 9.06127 8.44666 9.629 8.44V8.44Z" fill="#EA4335"/></svg>

<svg xmlns="http://www.w3.org/2000/svg" width="38" height="24" fill="none" aria-labelledby="pi-google_pay" role="img" viewBox="0 0 38 24"><title id="pi-google_pay">Google Pay</title><path fill="#fff" d="M0 0h38v24H0z"/><path fill="#5F6368" d="M18.093 11.976v3.2h-1.018v-7.9h2.691a2.45 2.45 0 0 1 1.747.692 2.28 2.28 0 0 1 .11 3.224l-.11.116c-.47.447-1.098.69-1.747.674zm0-3.732v2.788h1.698a1.35 1.35 0 0 0 1.37-1.117 1.39 1.39 0 0 0-1.37-1.641zm6.484 1.348c.65-.03 1.286.188 1.778.613.445.43.682 1.03.65 1.649v3.334h-.969v-.766h-.049a1.93 1.93 0 0 1-1.673.931 2.17 2.17 0 0 1-1.496-.533 1.67 1.67 0 0 1-.613-1.324 1.6 1.6 0 0 1 .613-1.336 2.75 2.75 0 0 1 1.698-.515c.517-.02 1.03.093 1.49.331v-.208a1.13 1.13 0 0 0-.417-.901 1.42 1.42 0 0 0-.98-.368 1.55 1.55 0 0 0-1.319.717l-.895-.564a2.49 2.49 0 0 1 2.182-1.06M23.29 13.52a.79.79 0 0 0 .337.662c.223.176.5.269.785.263.429-.001.84-.17 1.146-.472.305-.286.478-.685.478-1.103a2.05 2.05 0 0 0-1.324-.374 1.7 1.7 0 0 0-1.03.294.88.88 0 0 0-.392.73m9.286-3.75-3.39 7.79h-1.048l1.281-2.728-2.224-5.062h1.103l1.612 3.885 1.569-3.885z"/><path fill="#4285F4" d="M13.986 11.284q0-.463-.073-.92h-4.29v1.747h2.451a2.1 2.1 0 0 1-.9 1.373v1.134h1.464a4.43 4.43 0 0 0 1.348-3.334"/><path fill="#34A853" d="M9.629 15.721a4.35 4.35 0 0 0 3.01-1.097l-1.466-1.14a2.753 2.753 0 0 1-4.094-1.44H5.577v1.17a4.53 4.53 0 0 0 4.052 2.507"/><path fill="#FBBC04" d="M7.079 12.05a2.7 2.7 0 0 1 0-1.735v-1.17H5.577a4.5 4.5 0 0 0 0 4.075z"/><path fill="#EA4335" d="M9.629 8.44a2.45 2.45 0 0 1 1.74.68l1.3-1.293a4.37 4.37 0 0 0-3.065-1.183 4.53 4.53 0 0 0-4.027 2.5l1.502 1.171a2.715 2.715 0 0 1 2.55-1.875"/></svg>
